T: Highlander's Return
M: 4/4
L: 1/8
K: Amaj
a>ga>b a>g (3gfe | d>cd<f B2 (3def | g>fg>a g>fe>d | c>^Bc>d e>A (3efg |a2 (3gab a>gf>e | d>cd<f B2 e>f | g2 (3fga g2 (3fed | c>a (3dcB A2 :|e>A (3A^GA E>A (3AGA | c>BA<B c2 (3ABc | d>ef>d c>de>c | B>A (3GAF E2 C>D |E>A (3AAA E>A (3AAA | c>BA<B c2 a>g | f>e (3def e>dc>e | B>A (3GAB A2 :|
